icons/Device/save-fill.svg

<svg viewBox="0 0 24 24" xmlns="http://www.w3.org/2000/svg"><path d="M18 21V13H6V21H4C3.44772 21 3 20.5523 3 20V4C3 3.44772 3.44772 3 4 3H17L21 7V20C21 20.5523 20.5523 21 20 21H18ZM16 21H8V15H16V21Z"/></svg>

<svg xmlns="http://www.w3.org/2000/svg" viewBox="0 0 24 24">
    <g>
        <path fill="none" d="M0 0h24v24H0z"/>
        <path d="M18 21v-8H6v8H4a1 1 0 0 1-1-1V4a1 1 0 0 1 1-1h13l4 4v13a1 1 0 0 1-1 1h-2zm-2 0H8v-6h8v6z"/>
    </g>
</svg>
